svgs/sharp-solid/thumbs-up.svg

<svg xmlns="http://www.w3.org/2000/svg" viewBox="0 0 512 512"><!--! Font Awesome Pro 6.6.0 by @fontawesome - https://fontawesome.com License - https://fontawesome.com/license (Commercial License) Copyright 2024 Fonticons, Inc. --><path d="M240 67.7L240 32l96 0 0 35.7c0 38.1-9 75.1-25.8 108.3L464 176l48 0 0 96-16 0 0 80-24 0 0 72-24 0 0 56-48 0-120 0-14.5 0-12.1-8.1-72-48L160 409.7l0-25.7 0-64 0-96 0-23.1 18-14.4 7.9-6.4c34.2-27.3 54-68.7 54-112.4zM128 192l0 288L0 480 0 192l128 0z"/></svg>

<svg xmlns="http://www.w3.org/2000/svg" viewBox="0 0 512 512"><!--! Font Awesome Pro 6.5.2 by @fontawesome - https://fontawesome.com License - https://fontawesome.com/license (Commercial License) Copyright 2024 Fonticons, Inc. --><path d="M240 67.7V32h96V67.7c0 38.1-9 75.1-25.8 108.3H464h48v96H496v80H472v72H448v56H400 280 265.5l-12.1-8.1-72-48L160 409.7V384 320 224 200.9l18-14.4 7.9-6.4c34.2-27.3 54-68.7 54-112.4zM128 192V480H0V192H128z"/></svg>
